svg/emoji_u1f9c1.svg

<?xml version="1.0" encoding="UTF-8" standalone="no"?>
<!-- Generator: Adobe Illustrator 25.2.3, SVG Export Plug-In . SVG Version: 6.00 Build 0)  -->

<svg
   version="1.1"
   id="Layer_3"
   x="0px"
   y="0px"
   viewBox="0 0 128 128"
   style="enable-background:new 0 0 128 128;"
   xml:space="preserve"
   sodipodi:docname="emoji_u1f9c1.svg"
   inkscape:version="1.2.2 (732a01da63, 2022-12-09)"
   xmlns:inkscape="http://www.inkscape.org/namespaces/inkscape"
   xmlns:sodipodi="http://sodipodi.sourceforge.net/DTD/sodipodi-0.dtd"
   xmlns="http://www.w3.org/2000/svg"
   xmlns:svg="http://www.w3.org/2000/svg"><defs
   id="defs17392" /><sodipodi:namedview
   id="namedview17390"
   pagecolor="#ffffff"
   bordercolor="#000000"
   borderopacity="0.25"
   inkscape:showpageshadow="2"
   inkscape:pageopacity="0.0"
   inkscape:pagecheckerboard="0"
   inkscape:deskcolor="#d1d1d1"
   showgrid="false"
   inkscape:zoom="2.1210938"
   inkscape:cx="57.98895"
   inkscape:cy="89.104972"
   inkscape:window-width="1366"
   inkscape:window-height="697"
   inkscape:window-x="-8"
   inkscape:window-y="-8"
   inkscape:window-maximized="1"
   inkscape:current-layer="Layer_3" />
<path
   style="fill:#FBB75A;"
   d="M24.25,82.44c0,0-7.09-10.51-7.23-16.52c-0.08-3.32,1.6-7.13,4.88-9.1s7.79-3.28,7.79-3.28  l72.08,0.19c0,0,5.59-0.3,8.07,6.38c2.16,5.82-2.63,16.71-2.63,16.71S70.33,90.32,60.38,89.57S24.25,82.44,24.25,82.44z"
   id="path17329" />
<path
   style="fill:#CF6E21;"
   d="M45.65,57.19l-18.02-3.1c0,0-2.91,1.13-3.94,1.69c-1.03,0.56-1.78,1.03-1.78,1.03  s15.96,15.34,41.76,14.73c36.04-0.84,42.56-16.42,42.56-16.42s-1.22-1.1-2.96-1.43c-2.79-0.53-6.85-0.16-6.85-0.16L45.65,57.19z"
   id="path17331" />
<path
   style="fill:#CF6E21;"
   d="M19.74,75.21l-0.45-2.98c0,0,0.72-0.32,3.61,0.89c7.52,3.14,22.59,8.96,38.06,8.96  c20.05,0,35.45-6.5,43.15-10.57c3.52-1.86,4.93-2.24,4.93-2.24l-1.83,9.13L61.88,93.32L22.93,81.78L19.74,75.21z"
   id="path17333" />
<path
   style="fill:#A9E7FF;"
   d="M32.69,78.59l-9.2-1.03l-5.4-3.43c0,0,4.42,8.24,5.17,12.18s5.38,25.97,5.38,25.97  s6.33,11.61,34.16,11.54c29.89-0.07,39.51-13.05,39.51-13.05l2.87-24.33l2.01-7.07l2.16-8.39l-10.32,5.54l-7.32,4.97h-8.54  l-8.73,3.66l-9.76-0.84l-7.04,3.19l-9.57-4.13l-7.79,0.94L32.69,78.59z"
   id="path17335" />
<path
   style="fill:#4EC0F5;"
   d="M40.67,88.16c-3.57-0.52-3.57,4.32-3.1,8.26c0.47,3.94,2.21,23.85,2.21,23.85s1.38,0.68,3.45,1.23  c1.67,0.45,3.92,0.92,3.92,0.92s-1.97-23.28-2.06-25.43S44.52,88.72,40.67,88.16z"
   id="path17337" />
<path
   style="fill:#4EC0F5;"
   d="M58.03,91.82c-2.81-0.13-4.32,2.35-3.94,7.79s1.31,23.93,1.31,23.93s1.68,0.26,3.55,0.35  c1.88,0.09,3.86-0.07,3.86-0.07s-0.66-20.65-0.75-23.46S62.07,92.01,58.03,91.82z"
   id="path17339" />
<path
   style="fill:#4EC0F5;"
   d="M24.25,82.44c-2.07,0.07-1.78,2.18-0.94,5.84c0.84,3.66,3,15.56,3.38,17.43  c0.38,1.88,1.31,6.19,1.31,6.19s1.4,1.75,2.1,2.38c0.83,0.75,2.22,1.83,2.22,1.83S28.47,90.32,28,87.97  C27.53,85.63,26.87,82.34,24.25,82.44z"
   id="path17341" />
<path
   style="fill:#4EC0F5;"
   d="M75.58,90.88c-4.61,0.1-4.04,6.57-4.04,7.98c0,1.41,0.28,24.5,0.28,24.5s2.44-0.19,3.75-0.38  s3.65-0.63,3.65-0.63s0.11-21.99,0.11-24.05C79.34,96.23,80,90.79,75.58,90.88z"
   id="path17343" />
<path
   style="fill:#4EC0F5;"
   d="M91.45,85.63c-3.73,0.29-3.94,4.5-4.04,9.01c-0.09,4.5-0.26,25.53-0.26,25.53s2.18-0.79,3.45-1.31  c1.58-0.66,2.82-1.36,2.82-1.36s0.94-22.38,0.94-24.54S95.19,85.33,91.45,85.63z"
   id="path17345" />
<path
   style="fill:#4EC0F5;"
   d="M99.54,113.51c0.81-0.6,2.79-2.73,2.79-2.73s2.82-17.64,3.19-20.37c0.38-2.72,1.76-11.11,1.76-11.11  s-0.94-0.47-2.25,0c-1.31,0.47-3.03,2.59-3.31,7C101.44,90.72,99.54,113.13,99.54,113.51z"
   id="path17347" />
<path
   style="fill:#D9EFF2;"
   d="M99.7,77.18c-3.85,1.69-8.26,7.13-8.26,7.13s-3.75-2.83-8.07-1.69c-4.97,1.31-7.79,6.66-7.79,6.66  s-5.44-3.85-9.1-3.66c-3.66,0.19-8.26,4.5-8.26,4.5s-5.91-4.41-9.48-4.97c-3.57-0.56-8.26,1.41-8.26,1.41s-4.6-5.54-8.63-6.57  s-7.41,1.13-7.41,1.13s-1.97-3.66-3.85-4.69s-3.64-0.88-3.19-3.28c0.28-1.5,2.56-1.26,3.75-0.75c3.28,1.41,4.13,4.22,4.13,4.22  s2.25-1.5,7.51-0.38c5.78,1.24,8.54,6.01,8.54,6.01s3.28-1.95,7.23-1.69c5.63,0.38,9.01,5.16,9.01,5.16s3.94-4.04,8.63-4.22  s8.54,2.53,8.54,2.53s1.13-3.57,8.07-5.16c5.37-1.23,8.45,1.03,8.45,1.03s1.88-4.41,7.04-6.1c4.12-1.35,6.38-0.38,6.38-0.38  s0.19-3.38,3.1-4.32c1.33-0.43,2.52,0.06,2.3,1.5c-0.19,1.22-1.44,0.41-2.39,2.44c-0.7,1.5-1.5,4.04-1.5,4.04  S102.86,75.79,99.7,77.18z"
   id="path17349" />
<path
   style="fill:#FFE9C8;"
   d="M61.6,3.97c-0.48,0.79,1.13,4.6-0.84,7.98c-1.97,3.38-5.91,5.44-10.61,5.63s-6.92,1.22-9.2,3.47  c-2.54,2.51-2.53,6.19-2.53,6.19s-4.02,1.49-5.54,4.97c-1.6,3.66-0.56,6.66-0.56,6.66s-5.88,1.83-7.23,7.23  c-1.03,4.13-0.48,7.38,2.05,9.54s21.13,10.73,39.43,9.14s36.6-12.29,36.7-15.2c0.09-2.91,0.56-7.51-3.57-9.85  c-4.13-2.35-6.95-2.06-6.95-2.06s1.41-6.29,0.19-8.35s-2.63-3.38-4.97-4.6c-2.35-1.22-3.47-1.13-3.47-1.13s0.33-5.19-2.31-6.9  c-2.25-1.46-4.63-2.3-10.45-4.83c-4.33-1.89-5.82-4.41-6.66-5.44C64.23,5.38,62.16,3.04,61.6,3.97z"
   id="path17351" />
<path
   style="fill:#FFCB86;"
   d="M46.11,29.41c-0.21,0.73,3.78,3.01,8.63,3.85c6.01,1.03,18.32,0.43,25.53-2.53  c6.85-2.82,6.84-6.47,6.29-8.92c-0.84-3.75-4.41-5.07-4.41-5.07s-1.78,3.38-4.6,4.6c-2.82,1.22-9.64,3.28-14.55,4.32  C57.66,26.78,46.3,28.75,46.11,29.41z"
   id="path17353" />
<path
   style="fill:#FFCB86;"
   d="M37.48,44.99c0,0.77,7.49,3.95,17.83,5.35c16.61,2.25,29.75-2.06,34.54-5.63s5.35-5.73,5.16-9.57  s-2.06-5.82-2.06-5.82s-1.03,2.82-4.04,5.54c-3,2.72-10.14,5.35-16.99,6.85c-6.85,1.5-14.83,2.25-20.08,2.72  C47.16,44.84,37.48,44.24,37.48,44.99z"
   id="path17355" />
<path
   style="fill:#FFCF86;"
   d="M102.99,43.49c0,0,0.84,2.82,0.84,4.97c0,2.16-0.66,4.69-1.31,5.73  c-0.66,1.03-7.88,10.98-28.81,13.14c-20.93,2.16-32.1-2.25-37.92-5.16c-5.82-2.91-10.14-7.23-10.14-8.26c0-1.14,3.66,2.25,9.2,4.13  c3.99,1.35,20.46,6.38,37.54,2.53s24.78-8.73,27.12-11.36S102.43,44.24,102.99,43.49z"
   id="path17357" />
<path
   style="fill:#A681CB;"
   d="M40.06,34.57c1.45,2.03,2.67,4.29,4.43,3.24c1.76-1.06,0.35-3.17-0.99-5.21s-2.75-4.29-4.43-3.1  C37.39,30.7,39.01,33.09,40.06,34.57z"
   id="path17359" />
<path
   style="fill:#49C0F5;"
   d="M68.01,24.93c-1.18,0.87-0.72,2.75,1.37,5.56c2.04,2.75,3.48,4.58,4.96,3.52  c1.6-1.15,0.39-3.27-1.51-5.88S69.59,23.77,68.01,24.93z"
   id="path17361" />
<path
   style="fill:#A681CB;"
   d="M77.79,52.03c-1.09,2.59-2.72,5.74-0.53,6.41c2.32,0.7,2.99-2.53,4.19-5.07  c1.2-2.53,1.72-4.34,0.21-5.07C79.76,47.38,78.92,49.35,77.79,52.03z"
   id="path17363" />
<path
   style="fill:#ED4889;"
   d="M45.06,41.82c-1.27,2.6-2.35,5.04-0.63,5.84c1.97,0.92,2.89-0.7,4.26-3.63  c1.22-2.59,2.15-4.75,0.53-5.46C47.12,37.67,46.15,39.58,45.06,41.82z"
   id="path17365" />
<path
   style="fill:#72E38D;"
   d="M42.88,55.27c-1.55,1.55,0.07,3.17,1.76,4.58c1.69,1.41,4.22,3.1,5.56,1.62  c1.5-1.66-1.48-3.21-3.06-4.5C45.16,55.34,44.22,53.92,42.88,55.27z"
   id="path17367" />
<path
   style="fill:#72E38D;"
   d="M68.78,7.54c-2.11-0.21-2.04,3.1-1.97,5s0,4.01,1.9,4.08c1.97,0.07,1.83-2.53,1.76-4.58  C70.4,10,70.82,7.74,68.78,7.54z"
   id="path17369" />
<path
   style="fill:#FD6660;"
   d="M77.72,27.67c-1.17,0.68-1.13,2.39,0.77,5.56c1.68,2.81,3.24,5,5.07,3.87  c2.21-1.36-0.14-3.59-1.48-5.77S80.04,26.33,77.72,27.67z"
   id="path17371" />
<path
   id="path17373"
   style="fill:#ED4889;"
   d="M 55.078125 23.888672 C 54.469512 23.903496 53.832812 24.026563 53.289062 24.289062 C 51.932677 24.945928 51.072586 26.150106 51.003906 27.166016 C 50.773755 28.390787 50.854404 31.200787 53.679688 32.179688 C 57.059684 33.349686 59.859609 30.429919 59.349609 27.419922 C 59.062324 25.738998 57.931629 24.793713 57.044922 24.326172 C 56.858537 24.200496 56.613816 24.097727 56.332031 24.023438 C 56.160965 23.970514 56.036128 23.94631 55.970703 23.947266 C 55.691121 23.901486 55.388183 23.88112 55.078125 23.888672 z " />
<path
   id="path17375"
   style="fill:#ED4889;"
   d="M 63.974609 46.054688 C 63.472167 46.061167 62.902343 46.161328 62.269531 46.400391 C 61.113064 46.831372 60.296601 47.768254 60.054688 48.732422 C 60.054537 48.733021 60.054837 48.733776 60.054688 48.734375 C 59.645426 49.761011 59.233429 52.437253 61.669922 54.099609 C 64.339919 55.929608 68.219687 53.749059 68.179688 50.539062 C 68.159799 48.742435 67.139416 47.574586 66.388672 46.994141 C 65.969061 46.54397 65.155375 46.039461 63.974609 46.054688 z " />
<path
   id="path17377"
   style="fill:#ED4889;"
   d="M 92.576172 42.550781 C 91.810667 42.543289 90.988359 42.79586 90.380859 43.240234 C 89.598996 43.812153 88.999903 44.793522 88.880859 45.701172 C 88.677874 46.801084 88.756682 49.648257 91.900391 50.349609 C 94.530388 50.939609 97.12078 48.430778 96.300781 45.550781 C 95.65115 43.262951 93.522754 42.605777 93.117188 42.603516 C 92.94256 42.570478 92.761342 42.552594 92.576172 42.550781 z " />
<path
   id="path17379"
   style="fill:#ED4889;"
   d="M 32.150391 42.744141 C 31.526133 42.748008 30.809296 42.919141 30.029297 43.369141 C 29.22358 43.836223 28.687917 44.668089 28.478516 45.476562 C 28.188806 45.916122 27.573174 49.502714 30.699219 50.689453 C 33.699216 51.829452 36.640156 49.0607 36.160156 46.220703 C 35.902111 44.701753 34.913199 43.818293 34.097656 43.361328 C 33.651563 43.032735 32.982734 42.738984 32.150391 42.744141 z " />




</svg>

<?xml version="1.0" encoding="UTF-8" standalone="no"?>
<!DOCTYPE svg PUBLIC "-//W3C//DTD SVG 1.1//EN" "http://www.w3.org/Graphics/SVG/1.1/DTD/svg11.dtd">
<svg width="100%" height="100%" viewBox="0 0 128 128" version="1.1" xmlns="http://www.w3.org/2000/svg" xmlns:xlink="http://www.w3.org/1999/xlink" xml:space="preserve" xmlns:serif="http://www.serif.com/" style="fill-rule:evenodd;clip-rule:evenodd;stroke-linejoin:round;stroke-miterlimit:2;">
    <path id="path17329" d="M24.25,82.44C24.25,82.44 17.16,71.93 17.02,65.92C16.94,62.6 18.62,58.79 21.9,56.82C25.18,54.85 29.69,53.54 29.69,53.54L101.77,53.73C101.77,53.73 107.36,53.43 109.84,60.11C112,65.93 107.21,76.82 107.21,76.82C107.21,76.82 70.33,90.32 60.38,89.57C50.43,88.82 24.25,82.44 24.25,82.44Z" style="fill:rgb(255,167,38);fill-rule:nonzero;"/>
    <path id="path17331" d="M45.65,57.19L27.63,54.09C27.63,54.09 24.72,55.22 23.69,55.78C22.66,56.34 21.91,56.81 21.91,56.81C21.91,56.81 37.87,72.15 63.67,71.54C99.71,70.7 106.23,55.12 106.23,55.12C106.23,55.12 105.01,54.02 103.27,53.69C100.48,53.16 96.42,53.53 96.42,53.53L45.65,57.19Z" style="fill:rgb(239,108,0);fill-rule:nonzero;"/>
    <path id="path17333" d="M19.74,75.21L19.29,72.23C19.29,72.23 20.01,71.91 22.9,73.12C30.42,76.26 45.49,82.08 60.96,82.08C81.01,82.08 96.41,75.58 104.11,71.51C107.63,69.65 109.04,69.27 109.04,69.27L107.21,78.4L61.88,93.32L22.93,81.78L19.74,75.21Z" style="fill:rgb(230,81,0);fill-rule:nonzero;"/>
    <path id="path17335" d="M32.69,78.59L23.49,77.56L18.09,74.13C18.09,74.13 22.51,82.37 23.26,86.31C24.01,90.25 28.64,112.28 28.64,112.28C28.64,112.28 34.97,123.89 62.8,123.82C92.69,123.75 102.31,110.77 102.31,110.77L105.18,86.44L107.19,79.37L109.35,70.98L99.03,76.52L91.71,81.49L83.17,81.49L74.44,85.15L64.68,84.31L57.64,87.5L48.07,83.37L40.28,84.31L32.69,78.59Z" style="fill:rgb(98,205,234);fill-rule:nonzero;"/>
    <path id="path17337" d="M40.67,88.16C37.1,87.64 37.1,92.48 37.57,96.42C38.04,100.36 39.78,120.27 39.78,120.27C39.78,120.27 41.16,120.95 43.23,121.5C44.9,121.95 47.15,122.42 47.15,122.42C47.15,122.42 45.18,99.14 45.09,96.99C45,94.84 44.52,88.72 40.67,88.16Z" style="fill:rgb(29,163,200);fill-rule:nonzero;"/>
    <path id="path17339" d="M58.03,91.82C55.22,91.69 53.71,94.17 54.09,99.61C54.47,105.05 55.4,123.54 55.4,123.54C55.4,123.54 57.08,123.8 58.95,123.89C60.83,123.98 62.81,123.82 62.81,123.82C62.81,123.82 62.15,103.17 62.06,100.36C61.97,97.55 62.07,92.01 58.03,91.82Z" style="fill:rgb(29,163,200);fill-rule:nonzero;"/>
    <path id="path17341" d="M24.25,82.44C22.18,82.51 22.47,84.62 23.31,88.28C24.15,91.94 26.31,103.84 26.69,105.71C27.07,107.59 28,111.9 28,111.9C28,111.9 29.4,113.65 30.1,114.28C30.93,115.03 32.32,116.11 32.32,116.11C32.32,116.11 28.47,90.32 28,87.97C27.53,85.63 26.87,82.34 24.25,82.44Z" style="fill:rgb(29,163,200);fill-rule:nonzero;"/>
    <path id="path17343" d="M75.58,90.88C70.97,90.98 71.54,97.45 71.54,98.86C71.54,100.27 71.82,123.36 71.82,123.36C71.82,123.36 74.26,123.17 75.57,122.98C76.88,122.79 79.22,122.35 79.22,122.35C79.22,122.35 79.33,100.36 79.33,98.3C79.34,96.23 80,90.79 75.58,90.88Z" style="fill:rgb(29,163,200);fill-rule:nonzero;"/>
    <path id="path17345" d="M91.45,85.63C87.72,85.92 87.51,90.13 87.41,94.64C87.32,99.14 87.15,120.17 87.15,120.17C87.15,120.17 89.33,119.38 90.6,118.86C92.18,118.2 93.42,117.5 93.42,117.5C93.42,117.5 94.36,95.12 94.36,92.96C94.36,90.8 95.19,85.33 91.45,85.63Z" style="fill:rgb(29,163,200);fill-rule:nonzero;"/>
    <path id="path17347" d="M99.54,113.51C100.35,112.91 102.33,110.78 102.33,110.78C102.33,110.78 105.15,93.14 105.52,90.41C105.9,87.69 107.28,79.3 107.28,79.3C107.28,79.3 106.34,78.83 105.03,79.3C103.72,79.77 102,81.89 101.72,86.3C101.44,90.72 99.54,113.13 99.54,113.51Z" style="fill:rgb(29,163,200);fill-rule:nonzero;"/>
    <path id="path17349" d="M99.7,77.18C95.85,78.87 91.44,84.31 91.44,84.31C91.44,84.31 87.69,81.48 83.37,82.62C78.4,83.93 75.58,89.28 75.58,89.28C75.58,89.28 70.14,85.43 66.48,85.62C62.82,85.81 58.22,90.12 58.22,90.12C58.22,90.12 52.31,85.71 48.74,85.15C45.17,84.59 40.48,86.56 40.48,86.56C40.48,86.56 35.88,81.02 31.85,79.99C27.82,78.96 24.44,81.12 24.44,81.12C24.44,81.12 22.47,77.46 20.59,76.43C18.71,75.4 16.95,75.55 17.4,73.15C17.68,71.65 19.96,71.89 21.15,72.4C24.43,73.81 25.28,76.62 25.28,76.62C25.28,76.62 27.53,75.12 32.79,76.24C38.57,77.48 41.33,82.25 41.33,82.25C41.33,82.25 44.61,80.3 48.56,80.56C54.19,80.94 57.57,85.72 57.57,85.72C57.57,85.72 61.51,81.68 66.2,81.5C70.89,81.32 74.74,84.03 74.74,84.03C74.74,84.03 75.87,80.46 82.81,78.87C88.18,77.64 91.26,79.9 91.26,79.9C91.26,79.9 93.14,75.49 98.3,73.8C102.42,72.45 104.68,73.42 104.68,73.42C104.68,73.42 104.87,70.04 107.78,69.1C109.11,68.67 110.3,69.16 110.08,70.6C109.89,71.82 108.64,71.01 107.69,73.04C106.99,74.54 106.19,77.08 106.19,77.08C106.19,77.08 102.86,75.79 99.7,77.18Z" style="fill:rgb(225,250,254);fill-rule:nonzero;"/>
    <path id="path17351" d="M61.6,3.97C61.12,4.76 62.73,8.57 60.76,11.95C58.79,15.33 54.85,17.39 50.15,17.58C45.45,17.77 43.23,18.8 40.95,21.05C38.41,23.56 38.42,27.24 38.42,27.24C38.42,27.24 34.4,28.73 32.88,32.21C31.28,35.87 32.32,38.87 32.32,38.87C32.32,38.87 26.44,40.7 25.09,46.1C24.06,50.23 24.61,53.48 27.14,55.64C29.67,57.8 48.27,66.37 66.57,64.78C84.87,63.19 103.17,52.49 103.27,49.58C103.36,46.67 103.83,42.07 99.7,39.73C95.57,37.38 92.75,37.67 92.75,37.67C92.75,37.67 94.16,31.38 92.94,29.32C91.72,27.26 90.31,25.94 87.97,24.72C85.62,23.5 84.5,23.59 84.5,23.59C84.5,23.59 84.83,18.4 82.19,16.69C79.94,15.23 77.56,14.39 71.74,11.86C67.41,9.97 65.92,7.45 65.08,6.42C64.23,5.38 62.16,3.04 61.6,3.97Z" style="fill:rgb(255,243,224);fill-rule:nonzero;"/>
    <path id="path17353" d="M46.11,29.41C45.9,30.14 49.89,32.42 54.74,33.26C60.75,34.29 73.06,33.69 80.27,30.73C87.12,27.91 87.11,24.26 86.56,21.81C85.72,18.06 82.15,16.74 82.15,16.74C82.15,16.74 80.37,20.12 77.55,21.34C74.73,22.56 67.91,24.62 63,25.66C57.66,26.78 46.3,28.75 46.11,29.41Z" style="fill:rgb(255,204,128);fill-rule:nonzero;"/>
    <path id="path17355" d="M37.48,44.99C37.48,45.76 44.97,48.94 55.31,50.34C71.92,52.59 85.06,48.28 89.85,44.71C94.64,41.14 95.2,38.98 95.01,35.14C94.82,31.3 92.95,29.32 92.95,29.32C92.95,29.32 91.92,32.14 88.91,34.86C85.91,37.58 78.77,40.21 71.92,41.71C65.07,43.21 57.09,43.96 51.84,44.43C47.16,44.84 37.48,44.24 37.48,44.99Z" style="fill:rgb(255,204,128);fill-rule:nonzero;"/>
    <path id="path17357" d="M102.99,43.49C102.99,43.49 103.83,46.31 103.83,48.46C103.83,50.62 103.17,53.15 102.52,54.19C101.86,55.22 94.64,65.17 73.71,67.33C52.78,69.49 41.61,65.08 35.79,62.17C29.97,59.26 25.65,54.94 25.65,53.91C25.65,52.77 29.31,56.16 34.85,58.04C38.84,59.39 55.31,64.42 72.39,60.57C89.47,56.72 97.17,51.84 99.51,49.21C101.85,46.58 102.43,44.24 102.99,43.49Z" style="fill:rgb(255,204,128);fill-rule:nonzero;"/>
    <path id="path17359" d="M40.06,34.57C41.51,36.6 42.73,38.86 44.49,37.81C46.25,36.75 44.84,34.64 43.5,32.6C42.16,30.56 40.75,28.31 39.07,29.5C37.39,30.7 39.01,33.09 40.06,34.57Z" style="fill:rgb(165,79,180);fill-rule:nonzero;"/>
    <path id="path17361" d="M68.01,24.93C66.83,25.8 67.29,27.68 69.38,30.49C71.42,33.24 72.86,35.07 74.34,34.01C75.94,32.86 74.73,30.74 72.83,28.13C70.93,25.52 69.59,23.77 68.01,24.93Z" style="fill:rgb(82,156,210);fill-rule:nonzero;"/>
    <path id="path17363" d="M77.79,52.03C76.7,54.62 75.07,57.77 77.26,58.44C79.58,59.14 80.25,55.91 81.45,53.37C82.65,50.84 83.17,49.03 81.66,48.3C79.76,47.38 78.92,49.35 77.79,52.03Z" style="fill:rgb(165,79,180);fill-rule:nonzero;"/>
    <path id="path17365" d="M45.06,41.82C43.79,44.42 42.71,46.86 44.43,47.66C46.4,48.58 47.32,46.96 48.69,44.03C49.91,41.44 50.84,39.28 49.22,38.57C47.12,37.67 46.15,39.58 45.06,41.82Z" style="fill:rgb(215,89,139);fill-rule:nonzero;"/>
    <path id="path17367" d="M42.88,55.27C41.33,56.82 42.95,58.44 44.64,59.85C46.33,61.26 48.86,62.95 50.2,61.47C51.7,59.81 48.72,58.26 47.14,56.97C45.16,55.34 44.22,53.92 42.88,55.27Z" style="fill:rgb(124,179,66);fill-rule:nonzero;"/>
    <path id="path17369" d="M68.78,7.54C66.67,7.33 66.74,10.64 66.81,12.54C66.88,14.44 66.81,16.55 68.71,16.62C70.68,16.69 70.54,14.09 70.47,12.04C70.4,10 70.82,7.74 68.78,7.54Z" style="fill:rgb(124,179,66);fill-rule:nonzero;"/>
    <path id="path17371" d="M77.72,27.67C76.55,28.35 76.59,30.06 78.49,33.23C80.17,36.04 81.73,38.23 83.56,37.1C85.77,35.74 83.42,33.51 82.08,31.33C80.74,29.15 80.04,26.33 77.72,27.67Z" style="fill:rgb(227,95,92);fill-rule:nonzero;"/>
    <path id="path17373" d="M55.078,23.889C54.47,23.903 53.833,24.027 53.289,24.289C51.933,24.946 51.073,26.15 51.004,27.166C50.774,28.391 50.854,31.201 53.68,32.18C57.06,33.35 59.86,30.43 59.35,27.42C59.062,25.739 57.932,24.794 57.045,24.326C56.859,24.2 56.614,24.098 56.332,24.023C56.161,23.971 56.036,23.946 55.971,23.947C55.691,23.901 55.388,23.881 55.078,23.889Z" style="fill:rgb(215,89,139);fill-rule:nonzero;"/>
    <path id="path17375" d="M63.975,46.055C63.472,46.061 62.902,46.161 62.27,46.4C61.113,46.831 60.297,47.768 60.055,48.732C60.055,48.733 60.055,48.734 60.055,48.734C59.645,49.761 59.233,52.437 61.67,54.1C64.34,55.93 68.22,53.749 68.18,50.539C68.16,48.742 67.139,47.575 66.389,46.994C65.969,46.544 65.155,46.039 63.975,46.055Z" style="fill:rgb(215,89,139);fill-rule:nonzero;"/>
    <path id="path17377" d="M92.576,42.551C91.811,42.543 90.988,42.796 90.381,43.24C89.599,43.812 89,44.794 88.881,45.701C88.678,46.801 88.757,49.648 91.9,50.35C94.53,50.94 97.121,48.431 96.301,45.551C95.651,43.263 93.523,42.606 93.117,42.604C92.943,42.57 92.761,42.553 92.576,42.551Z" style="fill:rgb(215,89,139);fill-rule:nonzero;"/>
    <path id="path17379" d="M32.15,42.744C31.526,42.748 30.809,42.919 30.029,43.369C29.224,43.836 28.688,44.668 28.479,45.477C28.189,45.916 27.573,49.503 30.699,50.689C33.699,51.829 36.64,49.061 36.16,46.221C35.902,44.702 34.913,43.818 34.098,43.361C33.652,43.033 32.983,42.739 32.15,42.744Z" style="fill:rgb(215,89,139);fill-rule:nonzero;"/>
</svg>
